lib/svgs/favorite.svg

<svg xmlns="http://www.w3.org/2000/svg" viewBox="0 0 20 20">
    <path fill="#000" fill-rule="evenodd" d="M15.018,18 C14.938,18 14.857,17.984 14.782,17.952 L9.809,15.82 L4.836,17.952 C4.651,18.031 4.437,18.012 4.27,17.901 C4.101,17.79 4,17.602 4,17.4 L4,4.088 C4,2.937 4.937,2 6.088,2 L13.53,2 C14.681,2 15.618,2.937 15.618,4.088 L15.618,17.4 C15.618,17.602 15.517,17.79 15.348,17.901 C15.249,17.966 15.134,18 15.018,18 L15.018,18 Z M9.809,14.568 C9.89,14.568 9.97,14.584 10.045,14.616 L14.418,16.49 L14.418,4.088 C14.418,3.598 14.019,3.2 13.53,3.2 L6.088,3.2 C5.599,3.2 5.2,3.598 5.2,4.088 L5.2,16.49 L9.573,14.616 C9.648,14.584 9.728,14.568 9.809,14.568 L9.809,14.568 Z M11.787,12.8431 C11.691,12.8431 11.595,12.8201 11.507,12.7741 L9.809,11.8811 L8.11,12.7741 C7.908,12.8791 7.663,12.8621 7.478,12.7281 C7.293,12.5941 7.201,12.3661 7.24,12.1411 L7.564,10.2501 L6.19,8.9111 C6.026,8.7511 5.968,8.5131 6.038,8.2951 C6.109,8.0781 6.296,7.9201 6.522,7.8871 L8.422,7.6111 L9.271,5.8911 C9.473,5.4811 10.145,5.4811 10.347,5.8911 L11.196,7.6111 L13.095,7.8871 C13.321,7.9201 13.509,8.0781 13.58,8.2951 C13.65,8.5131 13.591,8.7511 13.428,8.9111 L12.054,10.2501 L12.378,12.1411 C12.416,12.3661 12.324,12.5941 12.139,12.7281 C12.035,12.8041 11.911,12.8431 11.787,12.8431 L11.787,12.8431 Z M9.809,10.6031 C9.905,10.6031 10.001,10.6261 10.088,10.6721 L10.99,11.1461 L10.818,10.1421 C10.785,9.9471 10.849,9.7491 10.99,9.6111 L11.72,8.9001 L10.711,8.7531 C10.516,8.7251 10.347,8.6031 10.26,8.4251 L9.809,7.5121 L9.358,8.4251 C9.271,8.6031 9.102,8.7251 8.907,8.7531 L7.898,8.9001 L8.628,9.6111 C8.769,9.7491 8.834,9.9471 8.8,10.1421 L8.628,11.1461 L9.53,10.6721 C9.617,10.6261 9.713,10.6031 9.809,10.6031 L9.809,10.6031 Z"/>
</svg>

<svg xmlns="http://www.w3.org/2000/svg" viewBox="0 0 20 20">
    <path fill="#000" fill-rule="evenodd" d="M15.018 18a.604.604 0 0 1-.236-.048L9.809 15.82l-4.973 2.132A.6.6 0 0 1 4 17.4V4.088A2.09 2.09 0 0 1 6.088 2h7.442a2.09 2.09 0 0 1 2.088 2.088V17.4a.598.598 0 0 1-.6.6m-5.209-3.432a.6.6 0 0 1 .236.048l4.373 1.874V4.088a.89.89 0 0 0-.888-.888H6.088a.89.89 0 0 0-.888.888V16.49l4.373-1.874a.6.6 0 0 1 .236-.048m1.978-1.725a.604.604 0 0 1-.28-.069l-1.698-.893-1.699.893a.598.598 0 1 1-.87-.633l.324-1.89L6.19 8.91a.602.602 0 0 1 .332-1.024l1.9-.276.849-1.72c.202-.41.874-.41 1.076 0l.849 1.72 1.899.276a.602.602 0 0 1 .333 1.024l-1.374 1.34.324 1.89a.601.601 0 0 1-.591.702m-1.978-2.24c.096 0 .192.023.279.07l.902.473-.172-1.004a.602.602 0 0 1 .172-.53l.73-.712-1.009-.147a.595.595 0 0 1-.451-.328l-.451-.913-.451.913a.595.595 0 0 1-.451.328L7.898 8.9l.73.711a.599.599 0 0 1 .172.531l-.172 1.004.902-.474a.597.597 0 0 1 .279-.069"/>
</svg>
